svgs/thin/microphone-lines-slash.svg

<svg xmlns="http://www.w3.org/2000/svg" viewBox="0 0 640 512"><!--! Font Awesome Pro 6.3.0 by @fontawesome - https://fontawesome.com License - https://fontawesome.com/license (Commercial License) Copyright 2023 Fonticons, Inc. --><path d="M479.1 256L480 200c0-4.406-3.594-7.999-8-7.999S464 195.6 464 200V256c0 7.125-1.1 13.95-2.104 20.8l14.66 11.65C478.7 277.1 479.1 267.1 479.1 256zM240 96c0-44.11 35.89-80 80-80s80 35.89 80 80v16h-72C323.6 112 320 115.6 320 120S323.6 128 328 128h72v48h-64.92L355.2 192H400v35.6L416 240.3l-.0005-144.3C415.1 42.97 373 0 319.1 0C269.6 0 228.8 38.95 224.8 88.32L240 100.4V96zM324.5 351.5L302.2 333.9c-23.7-5.422-43.22-21.41-53.74-42.72L225.7 273C233.8 317.9 272.8 352 320 352C321.5 352 322.1 351.6 324.5 351.5zM440 496h-112v-80.81c20.79-1.051 40.52-6.129 58.5-14.35l-13.97-11.1C356.2 396.2 338.6 400 320 400c-79.41 0-144-64.59-144-144V233.5L160 220.8V256c0 85.48 67.56 154.9 152 159.2V496h-112C195.6 496 192 499.6 192 504S195.6 512 200 512h240c4.406 0 8-3.594 8-8S444.4 496 440 496zM636.1 497.7L12.99 1.73C11.53 .5664 9.771 0 8.025 0C5.674 0 3.336 1.031 1.738 3.012c-2.75 3.469-2.172 8.5 1.281 11.25l623.1 496C628.5 511.4 630.2 512 631.1 512c2.344 0 4.688-1.031 6.266-3.016C641 505.5 640.4 500.5 636.1 497.7z"/></svg>

<svg xmlns="http://www.w3.org/2000/svg" viewBox="0 0 640 512"><!-- Font Awesome Pro 6.0.0-alpha2 by @fontawesome - https://fontawesome.com License - https://fontawesome.com/license (Commercial License) --><path d="M479.999 256V200C479.999 195.594 476.406 192 471.999 192S463.999 195.594 463.999 200V256C463.999 263.125 462.9 269.953 461.896 276.805L476.554 288.457C478.738 277.969 479.999 267.141 479.999 256ZM239.999 96C239.999 51.891 275.886 16 319.999 16S399.999 51.891 399.999 96V112H327.999C323.577 112 319.999 115.578 319.999 120S323.577 128 327.999 128H399.999V176H335.079L355.208 192H399.999V227.602L415.999 240.32V96C415.999 42.969 373.031 0 319.999 0C269.599 0 228.749 38.945 224.773 88.32L239.999 100.422V96ZM324.486 351.547L302.222 333.852C278.519 328.43 259.001 312.437 248.484 291.133L225.716 273.035C233.779 317.906 272.804 352 319.999 352C321.536 352 322.966 351.621 324.486 351.547ZM439.999 496H327.999V415.191C348.788 414.141 368.517 409.062 386.503 400.844L372.536 389.742C356.216 396.176 338.579 400 319.999 400C240.593 400 175.999 335.406 175.999 256V233.516L159.999 220.797V256C159.999 341.477 227.562 410.922 311.999 415.191V496H199.999C195.593 496 191.999 499.594 191.999 504S195.593 512 199.999 512H439.999C444.406 512 447.999 508.406 447.999 504S444.406 496 439.999 496ZM636.982 497.734L12.988 1.73C11.525 0.566 9.771 0 8.025 0C5.673 0 3.335 1.031 1.738 3.012C-1.012 6.48 -0.434 11.512 3.019 14.262L627.013 510.266C628.497 511.438 630.247 512 631.997 512C634.341 512 636.685 510.969 638.263 508.984C641.013 505.516 640.435 500.484 636.982 497.734Z"/></svg>
